X: 56
T:Pays de Haut (The High Country)
M:C|
L:1/8
Q:300
R:reel
Z:1997 by John Chambers <jc@trillian.mit.edu>
K:D
|: fg \
| "D"afaf d2ef |  "A7"gege c2ef | gfed cABc | "D"defg a2 fg|
"D"afaf d2ef |  "A7"gege c2ef | gfed cABc | "D"df"A7"ec "D"d2 :|
|: AG \
| "D"FAdA FAdA | "G"GBdB GBdB | "A7"ABcd efec|"D"defg a2 AG|
"D"FAdA FAdA | "G"GBdB GBdB | "A7"ABcd efec| "D"df "A7" ec "D"d2:|
